packages/katcn/src/icons/svg/addFolder-solid.svg

<svg width="24" height="25" viewBox="0 0 24 25" fill="none" xmlns="http://www.w3.org/2000/svg">
<path d="M12.8629 5.98809L11.2386 4.38809C10.5279 3.68809 9.61421 3.28809 8.70051 3.28809H4.74112C3.21827 3.28809 2 4.48809 2 5.98809V18.4881C2 20.0881 3.21827 21.2881 4.74112 21.2881H19.2589C20.7817 21.2881 22 20.0881 22 18.5881V8.78809C22 7.28809 20.7817 6.08809 19.2589 6.08809H12.8629V5.98809Z" fill="black"/>
<path d="M14.3 12.7881H12.8V11.2881C12.8 10.6881 12.4 10.2881 11.8 10.2881C11.2 10.2881 10.8 10.6881 10.8 11.2881V12.7881H9.40002C8.80002 12.7881 8.40002 13.1881 8.40002 13.7881C8.40002 14.3881 8.80002 14.7881 9.40002 14.7881H10.9V16.2881C10.9 16.8881 11.3 17.2881 11.9 17.2881C12.5 17.2881 12.9 16.8881 12.9 16.2881V14.7881H14.4C15 14.7881 15.4 14.3881 15.4 13.7881C15.4 13.1881 14.8 12.7881 14.3 12.7881Z" fill="white"/>
</svg>

<svg xmlns="http://www.w3.org/2000/svg" fill="none" viewBox="0 0 24 25"><path fill="#000" d="m12.863 5.988-1.624-1.6c-.711-.7-1.625-1.1-2.538-1.1H4.74c-1.522 0-2.74 1.2-2.74 2.7v12.5c0 1.6 1.218 2.8 2.741 2.8H19.26c1.523 0 2.741-1.2 2.741-2.7v-9.8c0-1.5-1.218-2.7-2.741-2.7h-6.396z"/><path fill="#fff" d="M14.3 12.788h-1.5v-1.5c0-.6-.4-1-1-1s-1 .4-1 1v1.5H9.4c-.6 0-1 .4-1 1s.4 1 1 1h1.5v1.5c0 .6.4 1 1 1s1-.4 1-1v-1.5h1.5c.6 0 1-.4 1-1s-.6-1-1.1-1"/></svg>
